!!!!SEGMENT: pl-wtm--r-2519--002_hertz-michal--kanon.krn
!!!cenid: 18xx:3086
!!!COM: Hertz, Michał
!!!COM-rismid: pe41023359
!!!CDT: 1844/09/28-~1918
!!!CNT: Polish
!!!OTL: Kanon [2]
!!!PDT:
!!!AGN:
!!!SMS-siglum: PL-Wtm
!!!SMS-shelfmark: R 2519
!!!SMS-shelfwork: 002 W
!!!SMS-variant:
!!!SMS-altvar:
!!!NIFC-rismid: 1001082119
!!!URL-scan: http://repozytorium.nifc.pl/skany/pl-wtm-nut--r2519
!!!ONB-nifc: UWAGA: 9 Kanonów num. 001-009. Skan 0006-0007 (Canon in d 2e, bez szkiców ołówkiem na 0007)
!!!key:
**kern	**kern
*part2	*part1
*staff2	*staff1
*Iforte	*Iforte
*I"[Fortepian]	*I"[Fortepian]
*	*I'
*clefF4	*clefG2
*k[]	*k[]
*C:	*C:
*M2/4	*M2/4
=1	=1
8r	2r
8r	.
[4c\	.
*>[A,A1,A,A2,B,C,C1,C,C2,D]	*>[A,A1,A,A2,B,C,C1,C,C2,D]
*>A	*>A
=2!|:	=2!|:
!!LO:TX:t=P:problem:all\left, middle, right:global
!	!LO:TX:t=P:problem="lekcja po korekcie"
16c\LL]	8r
16B\	.
16G\	8d/
16A\JJ	.
8B\L	[4dd\
8A\J	.
=3	=3
8r	16dd\LL]
.	16cc\
8F\	16a\
.	16b\JJ
[4f\	8cc\L
.	8b\J
=4	=4
16f\LL]	8r
16e\	.
16c\	8g/
16d\JJ	.
8e\L	[4gg\
8d\J	.
=5	=5
8A\L	16gg\LL]
.	16ff\
8B\J	16dd\
.	16ee\JJ
16A\LL	8ff\L
16B\	.
16c\	8ee\J
16A\JJ	.
=6	=6
8G\L	8b\L
8A\J	8cc\J
16G\LL	16b\LL
16E\	16cc\
16F#X\	16dd\
16E\JJ	16cc\JJ
=7	=7
8F#X'\L	8a/L
8D'\J	8b/J
4d\	16a/LL
.	16f#X/
.	16g/
.	16f#/JJ
*>A1	*>A1
=8	=8
16G\LL	8g/L
16A\	.
16G\	8e/J
16F#X\JJ	.
!	!LO:TX:a:t=I
8G\L	4ee\
8G\J	.
=9	=9
8r	16a/LL
.	16b/
8C/	16a/
.	16g/JJ
4c\	8a/L
.	8a/J
!!linebreak:original
*>A2	*>A2
=10:|!	=10:|!
16c\LL	8r
16d\	.
16c\	8e/
16B\JJ	.
!	!LO:TX:a:t=II
8c\L	4ee\
8c\J	.
=11	=11
8r	16dd\LL
.	16ee\
8B\	16dd\
.	16cc\JJ
4BB/	8dd\L
.	8dd\J
*>B	*>B
=12	=12
16AA/LL	8r
16BB/	.
16AA/	8cc\
16GG/JJ	.
8AA/L	4c/
[>8A/J	.
=13	=13
8A\]L	16B-i'/LL
.	16c'/
8G'\J	16B-/
.	16A/JJ
4GG/	8B-/L
.	8b-i/J
=14	=14
16FF/LL	8b/L
16GG/	.
16FF/	8a/J
16EE/JJ	.
8FF/L	4A/
8F/J	.
=15	=15
8r	16G/LL
.	16A/
8EE/	16G/
.	16F/JJ
16E\LL	8G/L
16D\	.
16C\	8g/J
16BB\JJ	.
=16	=16
16AA/LL	8r
16GG/	.
16FF/	8F/
16EE/JJ	.
8DD/L	16f/LL
.	16e/
8F/J	16d/
.	16c/JJ
=17	=17
8G\L	16B</LL
.	16A</
8E\J	16G</
.	16F</JJ
16C\LL	8E</L
16D\	.
16E\	8g</J
16F\JJ	.
=18	=18
16F\LL	8a/L
16E\	.
16D\	8f/J
16C\JJ	.
8BB\L	16d/LL
.	16e/
8B\J	16f/
.	16g/JJ
!!pagebreak:original
=19||	=19||
8r	16g/LL
.	16f/
8C\	16e/
.	16d/JJ
[4c\	8c/L
.	8cc/J
=20	=20
16c\LL]	8r
16B\	.
16G\	8d/
16A\JJ	.
8B\L	[4dd\
8A\J	.
=21	=21
8r	16dd\LL]
.	16cc\
8F\	16a\
.	16b\JJ
4f\	8cc\L
.	8b\J
=22	=22
16f\LL	8r
16e\	.
16c\	8g/
16d\JJ	.
8e\L	[4gg\
8d\J	.
=23	=23
8A\L	16gg\LL]
.	16ff\
8B\J	16dd\
.	16ee\JJ
16A\LL	8ff\L
16B\	.
16c\	8ee\J
16B\JJ	.
=24	=24
8G\L	8b\L
8A\J	8cc\J
16G\LL	16b\LL
16E\	16cc\
16F\	16dd\
16E\JJ	16cc\JJ
=25	=25
8r	8a/L
8D\	8b/J
4d\	16a/LL
.	16f/
.	16g/
.	16f/JJ
=26	=26
16G\LL	8r
16A\	.
16G\	8e/
16F\JJ	.
8G\L	4ee\
8G\J	.
=27	=27
8r	16a/LL
.	16b/
8C\	16a/
.	16g/JJ
[4c\	8a/L
.	8a/J
!!linebreak:original
=28	=28
16c\LL]	8r
16B\	.
16G\	8d/
16A\JJ	.
8B-X\L	[4dd\
8B-\J	.
=29	=29
8ryy	16dd\LL]
.	16cc\
8F\	16a\
.	16b-Xi\JJ
[4AA/	8cc\L
.	(8cc\J
=30	=30
16AA/LL]	8b\L)
16GG/	.
16AA/	8g\J
16BB/JJ	.
16C\LL	[4B/
16D\	.
16E\	.
16F\JJ	.
=31	=31
4G\	16B/LL]
.	16A/
.	16B/
.	16c/JJ
4GG/	16d/LL
.	16e/
.	16f/
.	16g/JJ
=32	=32
*2\right	*2\right
2C;<\	2ee;\
=33||	=33||
*M4/4	*M4/4
*met(c)	*met(c)
2C\	1r
2F\	.
*>C	*>C
=34!|:	=34!|:
4G\	2d/
4F\	.
4E\	2g/
4D\	.
=35	=35
8C/	4a/
4F\	.
.	4g/
4E\	.
.	4f/
4D\	.
.	4e/
8C/	.
=36	=36
2BB/	8d/
.	4g/
.	4f/
8AA/L	.
8BB/	4e/
8C/	.
8D/J	8d/
!!linebreak:original
=37	=37
4E\	2c/
4A\	.
4G\	8B/L
.	8c/
4F\	8d/
.	8e/J
=38	=38
8D\	4f/
4A\	.
.	4b/
4G\	.
.	4a/
4F\	.
.	4g/
8E\	.
=39	=39
8C\L	8e/
8D\	4b/
8E\	.
8F#X\J	4a/
4F#\	.
.	4g/
8E\L	.
!	!LO:SIC:v:s=8f#/
8D\J	8f/
*>C1	*>C1
=40	=40
2B\	8d/L
.	8e/
.	8f#X/
.	8g/J
2BB/	4g/
.	8f#/L
.	8e/J
=41	=41
!	!LO:TX:a:t=I
2C/	2cc\
2F\	2c/
*>C2	*>C2
=42:|!	=42:|!
8F#X\L	8d/L
8E\	8e/
8D\	8f#X/
8C\J	8g/J
!	!LO:TX:a:t=II
4BB\	4g/
8C\L	8f#/L
8D\J	8e/J
*>D	*>D
=43	=43
2E\	8g/L
!	!LO:SIC:v:s=8f#/
.	8f/
.	8e/
.	8d/J
2A\	8c/L
.	8d/J
.	4e/
=44	=44
4B\	2f#X/
4A\	.
4G\	2b/
4F#X\	.
=45	=45
8E\	4cc/
4A\	.
.	4b/
4G\	.
.	4a/
4F#X\	.
.	4g/
8E\	.
!!pagebreak:original
=46	=46
2D\	8f#X/
.	4b/
.	4a/
4C\	.
.	4g/
4BB\	.
.	8f#/
=47	=47
8C\L	2e/
8BB\	.
8AA\	.
8GG\J	.
8FF/	4d/
4B\	.
.	4c/
8A\	.
=48	=48
4B\	8d/L
.	8c/
4G\	8B/
.	8A/J
2E\	8G/
.	4cc\
.	8b\
=49	=49
8A\L	4cc\
8G\	.
8F\	4a\
8E\J	.
8D\L	2f/
8C\	.
8BB\	.
8AA\J	.
=50	=50
2GG/	8b/L
.	8a/
.	8g/
.	8f/J
2C/	8e/L
.	8d/
.	8c/
.	8B/J
=51||	=51||
2C/	2A/
2F\	2d/
=52	=52
4G\	2d/
4F\	.
4E\	2g/
4D\	.
=53	=53
8C\	4a/
4F\	.
.	4g/
4E\	.
.	4f/
4D\	.
.	4e/
8C\	.
!!linebreak:original
=54	=54
2BB/	8d/
.	4g/
.	4f/
8AA/L	.
8BB/	4e/
8C/	.
8D/J	8d/
=55	=55
4E\	2c/
4A\	.
4G\	8B/L
.	8c/
4F\	8d/
.	8e/J
=56	=56
8r	4f/
8D\L	.
8A\J	4b/
4G\	.
.	4a/
4F\	.
.	4g/
8E\	.
=57	=57
8C\L	8e/
8D\	4b\
8E\	.
8F\J	4a\
4F\	.
.	4g\
8E\L	.
8D\J	8f/
=58	=58
2B\	8d/L
.	8e/
.	8f/
.	8g/J
2BB/	4g/
.	8f/L
.	8e/J
=59	=59
8C\L	2cc\
8F\	.
8E\	.
8D\J	.
4E\	2c/
4D\	.
=60	=60
1C;<	1c;
==	==
*-	*-
!!!system-decoration: [(s1,s2)]
!!!RDF**kern: > = above
!!!RDF**kern: < = below
!!!RDF**kern: i = editorial accidental
!!!AIN: 2 forte
!!!ENC: Katarzyna Serwa
!!!END: 2021-10-23
!!!ENC: Filip Voros
!!!END: 2021-10-22
